src/images/ami.svg

<svg viewBox="0 0 361 361" xml:space="preserve" style="fill-rule:evenodd;clip-rule:evenodd;stroke-linejoin:round;stroke-miterlimit:2">
  <circle cx="180" cy="179.987" r="180.013" transform="matrix(1 0 0 1 .01268646 .02531491)"/>
  <path d="M4595.87 1651.71c4.51-.52 9.1-.78 13.76-.78 2.96 0 4.43.41 4.43 1.21 0 .36-.32.85-.95 1.48-.35.39-.69.77-1.01 1.16 10.16 2.7 19.9 6.83 29.24 12.39 15.76 9.39 30.13 22.67 43.11 39.84 4.12-.9 9.79-1.35 17.04-1.35 3.66 0 7.24.14 10.73.41 3.49.27 6.66.67 9.52 1.2 8.23 1.61 15.65 4.43 22.27 8.46 10.02 6.08 15.02 13.72 15.02 22.93 0 5.55-1.63 10.09-4.89 13.62-3.27 3.53-7.27 5.3-12.01 5.3-.44 0-.94-.05-1.47-.14-4.12 0-7.56-1.09-10.33-3.28-2.77-2.19-4.74-4.94-5.9-8.25-.18-.9-.36-1.81-.54-2.75-.18-.94-.27-1.81-.27-2.62 0-1.52.16-2.77.47-3.75.31-.99.74-1.48 1.27-1.48.72 0 1.19.89 1.41 2.68.23 1.79 1.03 3.13 2.42 4.03 1.38.89 3.02 1.34 4.89 1.34.72 0 1.26-.05 1.61-.14 4.12-.8 6.17-3.75 6.17-8.85 0-4.92-2.72-9.21-8.18-12.88-4.11-2.77-8.92-4.76-14.42-5.97-5.5-1.2-10.8-1.81-15.9-1.81-2.86 0-5.38.14-7.57.41-2.19.26-4.27.58-6.24.93 5.9 10.29 10.68 22.41 14.35 36.36 4.21 15.92 6.31 32.06 6.31 48.42 0 7.96-.67 16.46-2.02 25.49-1.34 9.03-2.81 18.15-4.42 27.36-1.08 7.78-1.75 13.46-2.01 17.04-.27 3.58-.41 6.75-.41 9.52 0 1.43-.4 2.15-1.2 2.15-.45 0-1.03-.27-1.75-.8-1.34-1.17-2.77-2.29-4.29-3.36-2.24-1.61-4.9-3.17-7.98-4.69-3.09-1.52-5.81-2.73-8.19-3.63-2.36-.89-4.85-1.74-7.44-2.54-.89-.27-1.34-.72-1.34-1.35 0-.71.54-1.34 1.61-1.87 3.93-1.97 7.15-3.94 9.66-5.91 4.65-3.66 8.14-7.95 10.46-12.87 3.67-8.14 6.04-17.35 7.11-27.64.63-5.9.94-15.65.94-29.24 0-12.43-2.37-25.8-7.11-40.11-3.58-10.73-7.92-20.61-13.01-29.64-9.93 3.31-18.89 7.44-26.9 12.4-8 4.97-15.13 10.94-21.39 17.91-10.38 11.72-17.75 24.37-22.14 37.97-1.07 3.34-1.95 6.7-2.64 10.08v29.62c0 1.7 1.36 3.58 4.07 5.64 3.63 2.72 5.53 4.21 5.71 4.47.18.18.32.44.41.79.09.27.13.49.13.66 0 .97-.8 1.45-2.42 1.45-.25.03-.65.04-1.2.03-.92.05-2.33 0-4.21-.16-5.39-.42-9.51-.64-12.37-.67-2.86.03-6.98.25-12.37.67-1.89.16-3.29.21-4.21.16-.55.01-.95 0-1.2-.03-1.62 0-2.43-.48-2.43-1.45 0-.17.05-.39.14-.66.09-.35.23-.61.41-.79.18-.26 2.08-1.75 5.7-4.47 2.72-2.06 4.08-3.94 4.08-5.64v-29.62c-.69-3.38-1.58-6.74-2.65-10.08-4.38-13.6-11.75-26.25-22.13-37.97-6.26-6.97-13.39-12.94-21.39-17.91-8.01-4.96-16.97-9.09-26.9-12.4-5.1 9.03-9.43 18.91-13.01 29.64-4.74 14.31-7.11 27.68-7.11 40.11 0 13.59.31 23.34.94 29.24 1.07 10.29 3.44 19.5 7.11 27.64 2.32 4.92 5.81 9.21 10.46 12.87 2.5 1.97 5.72 3.94 9.66 5.91 1.07.53 1.61 1.16 1.61 1.87 0 .63-.45 1.08-1.34 1.35-2.6.8-5.08 1.65-7.45 2.54-2.37.9-5.1 2.11-8.18 3.63-3.09 1.52-5.75 3.08-7.98 4.69-1.52 1.07-2.95 2.19-4.29 3.36-.72.53-1.3.8-1.75.8-.8 0-1.21-.72-1.21-2.15 0-2.77-.13-5.94-.4-9.52-.27-3.58-.94-9.26-2.01-17.04-1.61-9.21-3.08-18.33-4.43-27.36-1.34-9.03-2.01-17.53-2.01-25.49 0-16.36 2.1-32.5 6.31-48.42 3.66-13.95 8.45-26.07 14.35-36.36-1.97-.35-4.05-.67-6.24-.93-2.19-.27-4.72-.41-7.58-.41-5.09 0-10.39.61-15.89 1.81-5.5 1.21-10.31 3.2-14.42 5.97-5.46 3.67-8.19 7.96-8.19 12.88 0 5.1 2.06 8.05 6.17 8.85.36.09.9.14 1.61.14 1.88 0 3.51-.45 4.9-1.34 1.39-.9 2.19-2.24 2.42-4.03.22-1.79.69-2.68 1.4-2.68.54 0 .96.49 1.28 1.48.31.98.47 2.23.47 3.75 0 .81-.09 1.68-.27 2.62-.18.94-.36 1.85-.54 2.75-1.16 3.31-3.13 6.06-5.9 8.25-2.77 2.19-6.22 3.28-10.33 3.28-.54.09-1.03.14-1.47.14-4.74 0-8.75-1.77-12.01-5.3s-4.9-8.07-4.9-13.62c0-9.21 5.01-16.85 15.03-22.93 6.62-4.03 14.04-6.85 22.26-8.46 2.87-.53 6.04-.93 9.53-1.2 3.49-.27 7.06-.41 10.73-.41 7.24 0 12.92.45 17.04 1.35 12.98-17.17 27.35-30.45 43.11-39.84 9.33-5.56 19.08-9.69 29.24-12.39-.32-.39-.66-.77-1.01-1.16-.64-.63-.95-1.12-.95-1.48 0-.8 1.47-1.21 4.43-1.21 4.66 0 9.25.26 13.76.78Zm-11.48 11.02c-12.01 2.65-23.94 8.11-35.79 16.38-6.97 4.82-12.61 9.43-16.9 13.81-4.29 4.38-8.85 10.15-13.68 17.31 7.69 2.59 14.71 5.63 21.06 9.12 5.63 3.13 11.4 7.06 17.3 11.8 6.53 5.19 12.16 10.69 16.9 16.5 4.08 5 8.32 11.27 12.71 18.83v-83.33c0-9.83-.53-16.64-1.6-20.42Zm22.96 0c-1.07 3.78-1.6 10.59-1.6 20.42v83.33c4.39-7.56 8.62-13.83 12.7-18.83 4.74-5.81 10.38-11.31 16.91-16.5 5.9-4.74 11.67-8.67 17.3-11.8 6.35-3.49 13.37-6.53 21.06-9.12-4.83-7.16-9.39-12.93-13.68-17.31-4.3-4.38-9.93-8.99-16.9-13.81-11.86-8.27-23.78-13.73-35.79-16.38Z" style="fill:#fff;fill-rule:nonzero;stroke:#fff;stroke-width:.81px" transform="matrix(.97319 0 0 1.33613 -4292.64965742 -2197.80156873)"/>
</svg>

<?xml version="1.0" encoding="UTF-8" standalone="no"?>
<!DOCTYPE svg PUBLIC "-//W3C//DTD SVG 1.1//EN" "http://www.w3.org/Graphics/SVG/1.1/DTD/svg11.dtd">
<svg width="100%" height="100%" viewBox="0 0 361 361" version="1.1" xmlns="http://www.w3.org/2000/svg" xmlns:xlink="http://www.w3.org/1999/xlink" xml:space="preserve" xmlns:serif="http://www.serif.com/" style="fill-rule:evenodd;clip-rule:evenodd;stroke-linejoin:round;stroke-miterlimit:2;">
    <g transform="matrix(1,0,0,1,0.0324861,0.025296)">
        <g transform="matrix(0.900783,0,0,0.897837,22.1475,9.83717)">
            <g transform="matrix(1.11015,0,0,1.11379,-24.5869,-10.9565)">
                <circle cx="179.98" cy="179.987" r="180.013"/>
            </g>
        </g>
        <g transform="matrix(1.03406,0,0,1.4197,-4572.42,-2327.43)">
            <g transform="matrix(0.954426,0,0,0.954426,209.453,68.517)">
                <path d="M4595.87,1651.71C4600.38,1651.19 4604.97,1650.93 4609.63,1650.93C4612.59,1650.93 4614.06,1651.34 4614.06,1652.14C4614.06,1652.5 4613.74,1652.99 4613.11,1653.62C4612.76,1654.01 4612.42,1654.39 4612.1,1654.78C4622.26,1657.48 4632,1661.61 4641.34,1667.17C4657.1,1676.56 4671.47,1689.84 4684.45,1707.01C4688.57,1706.11 4694.24,1705.66 4701.49,1705.66C4705.15,1705.66 4708.73,1705.8 4712.22,1706.07C4715.71,1706.34 4718.88,1706.74 4721.74,1707.27C4729.97,1708.88 4737.39,1711.7 4744.01,1715.73C4754.03,1721.81 4759.03,1729.45 4759.03,1738.66C4759.03,1744.21 4757.4,1748.75 4754.14,1752.28C4750.87,1755.81 4746.87,1757.58 4742.13,1757.58C4741.69,1757.58 4741.19,1757.53 4740.66,1757.44C4736.54,1757.44 4733.1,1756.35 4730.33,1754.16C4727.56,1751.97 4725.59,1749.22 4724.43,1745.91C4724.25,1745.01 4724.07,1744.1 4723.89,1743.16C4723.71,1742.22 4723.62,1741.35 4723.62,1740.54C4723.62,1739.02 4723.78,1737.77 4724.09,1736.79C4724.4,1735.8 4724.83,1735.31 4725.36,1735.31C4726.08,1735.31 4726.55,1736.2 4726.77,1737.99C4727,1739.78 4727.8,1741.12 4729.19,1742.02C4730.57,1742.91 4732.21,1743.36 4734.08,1743.36C4734.8,1743.36 4735.34,1743.31 4735.69,1743.22C4739.81,1742.42 4741.86,1739.47 4741.86,1734.37C4741.86,1729.45 4739.14,1725.16 4733.68,1721.49C4729.57,1718.72 4724.76,1716.73 4719.26,1715.52C4713.76,1714.32 4708.46,1713.71 4703.36,1713.71C4700.5,1713.71 4697.98,1713.85 4695.79,1714.12C4693.6,1714.38 4691.52,1714.7 4689.55,1715.05C4695.45,1725.34 4700.23,1737.46 4703.9,1751.41C4708.11,1767.33 4710.21,1783.47 4710.21,1799.83C4710.21,1807.79 4709.54,1816.29 4708.19,1825.32C4706.85,1834.35 4705.38,1843.47 4703.77,1852.68C4702.69,1860.46 4702.02,1866.14 4701.76,1869.72C4701.49,1873.3 4701.35,1876.47 4701.35,1879.24C4701.35,1880.67 4700.95,1881.39 4700.15,1881.39C4699.7,1881.39 4699.12,1881.12 4698.4,1880.59C4697.06,1879.42 4695.63,1878.3 4694.11,1877.23C4691.87,1875.62 4689.21,1874.06 4686.13,1872.54C4683.04,1871.02 4680.32,1869.81 4677.94,1868.91C4675.58,1868.02 4673.09,1867.17 4670.5,1866.37C4669.61,1866.1 4669.16,1865.65 4669.16,1865.02C4669.16,1864.31 4669.7,1863.68 4670.77,1863.15C4674.7,1861.18 4677.92,1859.21 4680.43,1857.24C4685.08,1853.58 4688.57,1849.29 4690.89,1844.37C4694.56,1836.23 4696.93,1827.02 4698,1816.73C4698.63,1810.83 4698.94,1801.08 4698.94,1787.49C4698.94,1775.06 4696.57,1761.69 4691.83,1747.38C4688.25,1736.65 4683.91,1726.77 4678.82,1717.74C4668.89,1721.05 4659.93,1725.18 4651.92,1730.14C4643.92,1735.11 4636.79,1741.08 4630.53,1748.05C4620.15,1759.77 4612.78,1772.42 4608.39,1786.02C4607.32,1789.36 4606.44,1792.72 4605.75,1796.1L4605.75,1825.72C4605.75,1827.42 4607.11,1829.3 4609.82,1831.36C4613.45,1834.08 4615.35,1835.57 4615.53,1835.83C4615.71,1836.01 4615.85,1836.27 4615.94,1836.62C4616.03,1836.89 4616.07,1837.11 4616.07,1837.28C4616.07,1838.25 4615.27,1838.73 4613.65,1838.73C4613.4,1838.76 4613,1838.77 4612.45,1838.76C4611.53,1838.81 4610.12,1838.76 4608.24,1838.6C4602.85,1838.18 4598.73,1837.96 4595.87,1837.93C4593.01,1837.96 4588.89,1838.18 4583.5,1838.6C4581.61,1838.76 4580.21,1838.81 4579.29,1838.76C4578.74,1838.77 4578.34,1838.76 4578.09,1838.73C4576.47,1838.73 4575.66,1838.25 4575.66,1837.28C4575.66,1837.11 4575.71,1836.89 4575.8,1836.62C4575.89,1836.27 4576.03,1836.01 4576.21,1835.83C4576.39,1835.57 4578.29,1834.08 4581.91,1831.36C4584.63,1829.3 4585.99,1827.42 4585.99,1825.72L4585.99,1796.1C4585.3,1792.72 4584.41,1789.36 4583.34,1786.02C4578.96,1772.42 4571.59,1759.77 4561.21,1748.05C4554.95,1741.08 4547.82,1735.11 4539.82,1730.14C4531.81,1725.18 4522.85,1721.05 4512.92,1717.74C4507.82,1726.77 4503.49,1736.65 4499.91,1747.38C4495.17,1761.69 4492.8,1775.06 4492.8,1787.49C4492.8,1801.08 4493.11,1810.83 4493.74,1816.73C4494.81,1827.02 4497.18,1836.23 4500.85,1844.37C4503.17,1849.29 4506.66,1853.58 4511.31,1857.24C4513.81,1859.21 4517.03,1861.18 4520.97,1863.15C4522.04,1863.68 4522.58,1864.31 4522.58,1865.02C4522.58,1865.65 4522.13,1866.1 4521.24,1866.37C4518.64,1867.17 4516.16,1868.02 4513.79,1868.91C4511.42,1869.81 4508.69,1871.02 4505.61,1872.54C4502.52,1874.06 4499.86,1875.62 4497.63,1877.23C4496.11,1878.3 4494.68,1879.42 4493.34,1880.59C4492.62,1881.12 4492.04,1881.39 4491.59,1881.39C4490.79,1881.39 4490.38,1880.67 4490.38,1879.24C4490.38,1876.47 4490.25,1873.3 4489.98,1869.72C4489.71,1866.14 4489.04,1860.46 4487.97,1852.68C4486.36,1843.47 4484.89,1834.35 4483.54,1825.32C4482.2,1816.29 4481.53,1807.79 4481.53,1799.83C4481.53,1783.47 4483.63,1767.33 4487.84,1751.41C4491.5,1737.46 4496.29,1725.34 4502.19,1715.05C4500.22,1714.7 4498.14,1714.38 4495.95,1714.12C4493.76,1713.85 4491.23,1713.71 4488.37,1713.71C4483.28,1713.71 4477.98,1714.32 4472.48,1715.52C4466.98,1716.73 4462.17,1718.72 4458.06,1721.49C4452.6,1725.16 4449.87,1729.45 4449.87,1734.37C4449.87,1739.47 4451.93,1742.42 4456.04,1743.22C4456.4,1743.31 4456.94,1743.36 4457.65,1743.36C4459.53,1743.36 4461.16,1742.91 4462.55,1742.02C4463.94,1741.12 4464.74,1739.78 4464.97,1737.99C4465.19,1736.2 4465.66,1735.31 4466.37,1735.31C4466.91,1735.31 4467.33,1735.8 4467.65,1736.79C4467.96,1737.77 4468.12,1739.02 4468.12,1740.54C4468.12,1741.35 4468.03,1742.22 4467.85,1743.16C4467.67,1744.1 4467.49,1745.01 4467.31,1745.91C4466.15,1749.22 4464.18,1751.97 4461.41,1754.16C4458.64,1756.35 4455.19,1757.44 4451.08,1757.44C4450.54,1757.53 4450.05,1757.58 4449.61,1757.58C4444.87,1757.58 4440.86,1755.81 4437.6,1752.28C4434.34,1748.75 4432.7,1744.21 4432.7,1738.66C4432.7,1729.45 4437.71,1721.81 4447.73,1715.73C4454.35,1711.7 4461.77,1708.88 4469.99,1707.27C4472.86,1706.74 4476.03,1706.34 4479.52,1706.07C4483.01,1705.8 4486.58,1705.66 4490.25,1705.66C4497.49,1705.66 4503.17,1706.11 4507.29,1707.01C4520.27,1689.84 4534.64,1676.56 4550.4,1667.17C4559.73,1661.61 4569.48,1657.48 4579.64,1654.78C4579.32,1654.39 4578.98,1654.01 4578.63,1653.62C4577.99,1652.99 4577.68,1652.5 4577.68,1652.14C4577.68,1651.34 4579.15,1650.93 4582.11,1650.93C4586.77,1650.93 4591.36,1651.19 4595.87,1651.71ZM4584.39,1662.73C4572.38,1665.38 4560.45,1670.84 4548.6,1679.11C4541.63,1683.93 4535.99,1688.54 4531.7,1692.92C4527.41,1697.3 4522.85,1703.07 4518.02,1710.23C4525.71,1712.82 4532.73,1715.86 4539.08,1719.35C4544.71,1722.48 4550.48,1726.41 4556.38,1731.15C4562.91,1736.34 4568.54,1741.84 4573.28,1747.65C4577.36,1752.65 4581.6,1758.92 4585.99,1766.48L4585.99,1683.15C4585.99,1673.32 4585.46,1666.51 4584.39,1662.73ZM4607.35,1662.73C4606.28,1666.51 4605.75,1673.32 4605.75,1683.15L4605.75,1766.48C4610.14,1758.92 4614.37,1752.65 4618.45,1747.65C4623.19,1741.84 4628.83,1736.34 4635.36,1731.15C4641.26,1726.41 4647.03,1722.48 4652.66,1719.35C4659.01,1715.86 4666.03,1712.82 4673.72,1710.23C4668.89,1703.07 4664.33,1697.3 4660.04,1692.92C4655.74,1688.54 4650.11,1683.93 4643.14,1679.11C4631.28,1670.84 4619.36,1665.38 4607.35,1662.73Z" style="fill:white;fill-rule:nonzero;stroke:white;stroke-width:0.81px;"/>
            </g>
        </g>
    </g>
</svg>
